T: Mountcashel Brigade's March, The
M: 4/4
L: 1/8
K: Amaj
E2 |A2 c>B AB AF | E>F ED [C2E2] E2 | A2 c>B AB cd | B2 e>f ed cB |
A2 c>B A>B AF | E>F ED [C2c2-] [E-c][Ee] | fe/d/ c>B dc/B/ AG | A2 A>B A2 ||
Bc/d/ |e>f ed c>d cB | A2 AB cA Bc | d>e dc B>c BA | G2 E>F GE FG |
A2 A2 GB GE | F>E FG A2 f2 | e>f ec dB GE | A2 A>A A2 |]
